X: 961
M: C
L: 1/8
K: C
V: 1
|:\
c2ec dBTAG | AcTBA GETE2 |\
c(e/f/ g)e dBTAG | AcTBA GCC2 :|\
ecgc dBgB | cAfA BGTG2 |
egcg dgBg | ceAc BGTG2 |\
V: 2 clef=bass middle=d
|:\
c'2c'2 b2b2 | a2a2 c'2c'2 |\
c'2c'2 g2g2 | f2g2 c2c2 :|\
c'2c'2 b2b2 | a2a2 g2g2 |
f2f2 e2c2 | f2g2 c2c2 |\
c'2c'2 b2b2 | a2a2 g2g2 |\
f2f2 e2c2 | f2g2 c2c2 |]

